X:293
T: Der Wolf und die Gans (48b), S.155
N: T0182
O: Luxemburg
S: Singendes Volk, Esch-Alzette 1937 posth.]
N: Straen, fff Witry, 24.1.1933
R: Liebeslieder]
M: 6/8
L: 1/16
K: G
D2 | G4G2B2G2G2 | d2d2d2d4
d2 | d2d2d2e2d2c2 | c2B2B2B4
d2 | e2d2d2d2d2e2 | e4d2d4
d2 | d2d2d2e2d2dd | d4c2c4
c2 | d4d2d2c2B2 | A6G4

